assets/icons/svg/search.svg

<svg width="16" height="16" viewBox="0 0 16 16" fill="none" xmlns="http://www.w3.org/2000/svg">
<path d="M6.5 2C8.98512 2 11 4.01488 11 6.5C11 7.25975 10.8099 7.97488 10.4769 8.603L13.6059 11.7313L13.6033 11.7335C13.8478 11.9739 14 12.3069 14 12.677C14 13.4079 13.4075 14.0004 12.6766 14.0004C12.3072 14.0004 11.9739 13.8481 11.7335 13.6033L11.7343 13.6025L8.60637 10.475C7.97787 10.8091 7.26162 11 6.5 11C4.01488 11 2 8.98512 2 6.5C2 4.01488 4.01488 2 6.5 2ZM12.2019 13.1345C12.3226 13.2598 12.4899 13.3381 12.6766 13.3381C13.0422 13.3381 13.3385 13.0423 13.3385 12.6766C13.3385 12.4899 13.2598 12.323 13.1349 12.2019L13.1382 12.1989L10.1135 9.17413C9.84912 9.53075 9.53413 9.84575 9.17825 10.1109L12.2019 13.1345ZM6.5 10.2504C8.57075 10.2504 10.25 8.57075 10.25 6.50037C10.25 4.42962 8.57075 2.75037 6.5 2.75037C4.42963 2.75037 2.75 4.42962 2.75 6.50037C2.75 8.57075 4.42963 10.2504 6.5 10.2504Z" fill="#333333"/>
<path d="M6.5 3.875C7.95013 3.875 9.125 5.05025 9.125 6.5C9.125 6.6035 9.041 6.6875 8.9375 6.6875C8.834 6.6875 8.75 6.6035 8.75 6.5C8.75 5.25763 7.74275 4.25 6.5 4.25C6.39687 4.25 6.3125 4.166 6.3125 4.0625C6.3125 3.959 6.39687 3.875 6.5 3.875Z" fill="#333333"/>
</svg>

<svg xmlns="http://www.w3.org/2000/svg" width="16" height="16" viewBox="0 0 16 16">
  <path d="M6.5 2a4.5 4.5 0 0 1 3.977 6.603l3.129 3.128-.003.002a1.323 1.323 0 1 1-1.87 1.87h.001l-3.128-3.128A4.5 4.5 0 1 1 6.5 2Zm5.702 11.134a.661.661 0 1 0 .933-.933l.003-.002-3.024-3.025c-.265.357-.58.672-.936.937l3.024 3.023ZM6.5 10.25a3.75 3.75 0 1 0-.001-7.5 3.75 3.75 0 0 0 .001 7.5Z"/>
  <path d="M6.5 3.875A2.625 2.625 0 0 1 9.125 6.5a.188.188 0 0 1-.375 0A2.25 2.25 0 0 0 6.5 4.25a.188.188 0 0 1 0-.375Z"/>
</svg>
